src/assets/img/providers/print_studios.svg

<svg width="92" height="32" viewBox="0 0 92 32" fill="none" xmlns="http://www.w3.org/2000/svg">
<g clip-path="url(#clip0_4595_7992)">
<path fill-rule="evenodd" clip-rule="evenodd" d="M21.5872 8.43697V0.490931C21.5872 0.124479 21.5872 0.123076 21.9443 0.123076C22.7556 0.123076 23.5669 0.12136 24.3782 0.119644C26.2779 0.115625 28.1776 0.111606 30.0773 0.12962C31.9058 0.146915 33.5362 0.719965 34.8473 2.05023C36.6725 3.90539 37.0441 6.95807 35.7124 9.08528C35.1417 9.9958 34.3406 10.6464 33.3833 11.1162L33.3804 11.1176C33.1201 11.2457 33.1185 11.2465 33.2922 11.4728C34.5651 13.1365 35.8404 14.7994 37.118 16.4615L37.1468 16.4991L37.1469 16.4993C37.1799 16.5423 37.2129 16.5852 37.2451 16.6293C37.3105 16.7196 37.2717 16.7537 37.1754 16.7551H37.1521H33.0388C32.8944 16.7551 32.8272 16.6647 32.7591 16.5731L32.7589 16.5729C32.7499 16.5608 32.7409 16.5487 32.7317 16.5368C31.3404 14.7279 29.9497 12.9184 28.5596 11.1082L28.4455 10.9607L28.4452 10.9604C27.9739 10.3513 27.503 9.74264 27.0377 9.12641C27.0161 9.09788 26.9875 9.06948 26.9586 9.04069C26.8799 8.96242 26.7983 8.88126 26.8451 8.7866C26.8857 8.70509 26.9987 8.71822 27.1073 8.73085C27.1463 8.73539 27.1847 8.73986 27.2191 8.73986C27.6192 8.73631 28.0194 8.73472 28.4197 8.73313H28.4197H28.4197H28.4198H28.4198H28.4198H28.4198H28.4199H28.4199H28.4199H28.4199H28.42C28.9154 8.73116 29.4109 8.72919 29.9062 8.7235C30.3126 8.71761 30.7143 8.63515 31.0902 8.48044C32.089 8.07566 32.6102 7.25395 32.5859 6.12655C32.5644 5.13142 31.9516 4.30036 30.9887 3.95307C30.5378 3.79773 30.0634 3.72135 29.5865 3.72731C28.3998 3.72152 27.2127 3.72421 26.0256 3.7269H26.0256H26.0256H26.0255H26.0255H26.0255H26.0255H26.0254H26.0254H26.0254H26.0254H26.0253L25.8472 3.72731C25.5088 3.72731 25.5008 3.73572 25.5008 4.08722V16.2867C25.5008 16.772 25.4971 16.7719 25.1961 16.7631C25.1451 16.7616 25.0856 16.7599 25.0161 16.7602C24.3259 16.763 23.6355 16.7621 22.9452 16.7612H22.9442H22.9441H22.944H22.944H22.9439H22.9439H22.9438H22.9438H22.9437H22.9437H22.9436H22.9436C22.5985 16.7607 22.2533 16.7602 21.9083 16.7602C21.5886 16.7602 21.5867 16.7602 21.5867 16.433C21.5867 13.7663 21.5869 11.1009 21.5872 8.43697ZM0.813893 8.44179V0.52145C0.813893 0.125083 0.813893 0.124148 1.21493 0.124148C1.90715 0.124024 2.59936 0.123472 3.29157 0.12292C5.20847 0.121393 7.12536 0.119865 9.04225 0.12742C10.2963 0.133029 11.5093 0.364399 12.6217 0.97157C14.5465 2.02232 15.5272 3.68865 15.6968 5.84249C15.8076 7.24474 15.5449 8.57734 14.7709 9.77485C13.7575 11.343 12.2562 12.1404 10.4595 12.4531C9.9443 12.5373 9.42308 12.5789 8.9011 12.5775C8.82746 12.5809 8.75416 12.5655 8.68809 12.5328C8.62202 12.5001 8.56536 12.4511 8.52343 12.3905C8.05629 11.7867 7.58714 11.1843 7.11802 10.582L7.11798 10.5819L7.11793 10.5819L7.11789 10.5818L7.11784 10.5817L7.11779 10.5817L7.11775 10.5816L7.1177 10.5816L7.11766 10.5815L7.11761 10.5814L7.11757 10.5814L7.11752 10.5813C6.77334 10.1394 6.42918 9.69749 6.08586 9.25509C6.07567 9.24196 6.06265 9.22882 6.04932 9.21534C6.00517 9.17074 5.95746 9.12253 5.99658 9.05971C6.03051 9.00316 6.09861 9.00812 6.16287 9.0128C6.18094 9.01411 6.19871 9.01541 6.21533 9.0153C6.44651 9.0153 6.67769 9.01552 6.90887 9.01574L6.91188 9.01574C7.57526 9.01637 8.23865 9.017 8.90203 9.0125C9.86584 9.00595 10.6969 8.68858 11.283 7.89398C12.4189 6.35478 11.5555 4.18925 9.64709 3.76437C9.38083 3.70509 9.1089 3.675 8.83612 3.67463C7.57442 3.67245 6.3124 3.67245 5.05007 3.67463C4.7369 3.67463 4.72755 3.68491 4.72755 4.01116V16.3243L4.72763 16.3835C4.728 16.5827 4.72818 16.676 4.68178 16.7191C4.64096 16.757 4.56409 16.7562 4.41958 16.7546H4.4194H4.41921C4.3833 16.7542 4.34321 16.7537 4.29847 16.7538C3.26268 16.7563 2.22689 16.7563 1.1911 16.7538C0.817165 16.7538 0.813893 16.7538 0.813893 16.3827C0.813582 13.7368 0.813582 11.0898 0.813893 8.44179ZM58.9485 7.71155C58.9434 7.63402 58.9381 7.55297 58.9929 7.47193C59.0765 7.52076 59.1302 7.59414 59.184 7.66767C59.2034 7.69408 59.2227 7.72051 59.2435 7.74583C61.5357 10.6709 63.8238 13.598 66.1079 16.5271C66.2421 16.6973 66.3818 16.7609 66.5978 16.7609C67.6415 16.7539 68.6849 16.7544 69.7282 16.7549L70.5708 16.7552C70.5946 16.7552 70.6212 16.7582 70.6481 16.7612C70.7243 16.7698 70.8038 16.7787 70.8349 16.7221C70.8756 16.6478 70.8153 16.5855 70.7585 16.5268L70.7584 16.5268L70.7584 16.5267C70.7402 16.5079 70.7223 16.4894 70.7082 16.4711C66.5825 11.0955 62.4591 5.71819 58.3381 0.339188C58.2886 0.266236 58.2208 0.207582 58.1414 0.169106C58.0621 0.130631 57.974 0.113686 57.8861 0.11997C57.2765 0.126871 56.6668 0.125876 56.0574 0.124882C55.8412 0.12453 55.625 0.124177 55.4088 0.124177C55.0592 0.124177 55.0592 0.125579 55.0592 0.475673V6.27161V16.3435C55.0592 16.5491 55.0592 16.6525 55.1109 16.7045C55.1632 16.7571 55.2683 16.7571 55.4799 16.7571H58.5648C58.9513 16.7571 58.9513 16.7566 58.9513 16.3776C58.9495 13.5108 58.9495 10.644 58.9513 7.77715C58.9513 7.75563 58.9499 7.73373 58.9485 7.71155ZM84.1697 0.12409H91.3427C91.7129 0.12409 91.7138 0.12409 91.7138 0.500826V3.39879C91.7138 3.7545 91.7138 3.7559 91.3464 3.7559H86.4853C86.1273 3.7559 86.1245 3.7587 86.1245 4.12422V16.32C86.1245 16.757 86.1245 16.757 85.6963 16.757H82.5647C82.2174 16.757 82.2164 16.757 82.2164 16.413V4.19387C82.2164 4.14889 82.2169 4.10852 82.2174 4.07229V4.07177C82.2192 3.92057 82.2202 3.84147 82.1811 3.80021C82.1383 3.75494 82.0473 3.7552 81.8566 3.75577L81.7724 3.7559H76.958C76.6205 3.7559 76.6145 3.74982 76.6145 3.41749V0.450345C76.6145 0.134373 76.6238 0.125492 76.9482 0.123155L84.1697 0.12409ZM47.5824 16.3568V8.46167C47.5784 5.78308 47.581 3.1048 47.5904 0.426825C47.5908 0.189378 47.517 0.120201 47.2833 0.120201C46.1765 0.127991 45.0702 0.127991 43.9646 0.120201C43.7464 0.118799 43.6618 0.184237 43.6618 0.41327C43.6661 5.76236 43.6653 11.1114 43.6594 16.4605C43.6594 16.7027 43.7445 16.7606 43.9731 16.7606C44.7551 16.7534 45.5371 16.7545 46.3191 16.7556H46.3196C46.6041 16.756 46.8885 16.7564 47.173 16.7564C47.5824 16.7564 47.5824 16.7559 47.5824 16.3568ZM70.5068 11.3668L70.3656 11.1895C70.2349 11.0254 70.1044 10.8615 69.9748 10.6966C68.9359 9.37409 67.8966 8.05209 66.8567 6.73055C66.7322 6.58165 66.6658 6.3927 66.6697 6.19864C66.6738 4.82472 66.6735 3.45081 66.6731 2.0769V2.03116V1.98673V1.94357V1.90164V1.86091V1.82135V1.78291C66.673 1.3473 66.6729 0.911691 66.673 0.476082C66.673 0.127391 66.6777 0.124119 67.025 0.123651H70.2501C70.56 0.123651 70.5736 0.136272 70.5736 0.435417V11.1331C70.5736 11.1807 70.57 11.2284 70.5664 11.2761L70.5664 11.2763L70.5641 11.3075L70.5619 11.3397L70.5068 11.3668ZM5.01267 26.1388C4.3438 25.8504 3.64689 25.7167 2.85649 25.7228C2.36804 25.7102 1.82818 25.778 1.32384 26.0103C0.785846 26.2561 0.415654 26.6389 0.373119 27.2611C0.328715 27.9127 0.593739 28.4086 1.14762 28.7507C1.4365 28.9212 1.747 29.052 2.07077 29.1396C2.25273 29.1922 2.43518 29.2431 2.61763 29.294C2.83261 29.3539 3.04759 29.4139 3.26174 29.4766C3.43587 29.5206 3.599 29.6002 3.74084 29.7103C3.9881 29.9165 3.96987 30.2212 3.6983 30.3932C3.53892 30.4956 3.35195 30.5325 3.16498 30.5484C2.39889 30.6138 1.68094 30.4231 0.986834 30.1249C0.821369 30.0534 0.737702 30.0782 0.670395 30.2488C0.569433 30.5017 0.457254 30.7513 0.332454 30.9929C0.241776 31.1663 0.285713 31.2514 0.455851 31.3318C1.11476 31.6363 1.82734 31.8077 2.55267 31.8361C3.24211 31.8688 3.9264 31.8216 4.55087 31.4795C5.62826 30.8896 5.70024 29.4462 4.69109 28.7512C4.51016 28.6291 4.31721 28.5259 4.11524 28.4432C3.78459 28.3052 3.44081 28.2066 3.09697 28.108C2.94697 28.065 2.79696 28.022 2.64802 27.9758C2.45498 27.9159 2.26147 27.8556 2.08713 27.7491C1.9469 27.6649 1.83192 27.5551 1.85342 27.3784C1.87492 27.2017 1.99879 27.1106 2.14976 27.0512C2.34814 26.9796 2.55773 26.9442 2.76862 26.9465C3.37152 26.938 3.96963 27.0547 4.52516 27.2891C4.70885 27.3648 4.78972 27.3228 4.85702 27.1489C4.94177 26.9228 5.04058 26.7022 5.1529 26.4884C5.25246 26.2991 5.19216 26.2164 5.01267 26.1388ZM47.8825 25.8756C47.3134 25.8063 46.7402 25.8167 46.1674 25.827C45.8281 25.8332 45.489 25.8393 45.1509 25.8289C44.914 25.8214 44.8382 25.9055 44.8406 26.1378C44.8474 26.7778 44.8463 27.4177 44.8451 28.0579V28.0579V28.058V28.0581V28.0582V28.0582C44.8447 28.2984 44.8443 28.5385 44.8443 28.7787V31.443C44.8443 31.6084 44.8663 31.7272 45.0822 31.7234C45.403 31.7196 45.7239 31.7209 46.0448 31.7222C46.5811 31.7245 47.1173 31.7267 47.653 31.7047C48.4841 31.6706 49.2319 31.3799 49.7774 30.7255C50.5449 29.8047 50.6692 28.7493 50.2617 27.6504C49.8578 26.565 49.0024 26.0116 47.8825 25.8756ZM49.0679 28.8255C49.0342 29.7005 48.5117 30.2959 47.6712 30.4011C47.384 30.4371 47.0948 30.4314 46.8058 30.4257H46.8058H46.8057H46.8057H46.8057H46.8056C46.6818 30.4233 46.5581 30.4208 46.4345 30.4217C46.2601 30.4217 46.2344 30.3137 46.2349 30.174V28.7717C46.2349 28.6172 46.2353 28.4626 46.2358 28.3081L46.2358 28.3043C46.2367 27.9927 46.2377 27.6811 46.2349 27.3695C46.2325 27.19 46.3008 27.1157 46.4821 27.1231C46.6302 27.1294 46.7786 27.127 46.9269 27.1247C47.2142 27.1203 47.5014 27.1158 47.7862 27.1732C48.5972 27.3386 49.1006 27.9865 49.0679 28.8255ZM70.8676 28.7646C70.8658 27.0146 72.2624 25.6329 74.0287 25.6381C75.7928 25.6432 77.1698 27.0094 77.1702 28.7552C77.1702 30.5141 75.7909 31.8813 74.0147 31.8813C72.2586 31.8799 70.8676 30.5043 70.8676 28.7646ZM72.2568 28.7543C72.2549 29.7616 73.0509 30.5838 74.0236 30.5838C74.9907 30.5819 75.7731 29.7761 75.7848 28.7725C75.7951 27.762 75.0122 26.9421 74.0306 26.9393C73.049 26.9365 72.2586 27.747 72.2568 28.7543ZM91.3904 29.7842C91.2899 29.1532 90.8608 28.8027 90.3312 28.5404C89.9376 28.3459 89.5176 28.2262 89.0979 28.1066L89.0975 28.1065L89.0972 28.1064C88.9928 28.0766 88.8885 28.0469 88.7845 28.016L88.7603 28.0088C88.5295 27.9402 88.2977 27.8714 88.0904 27.7449C87.9591 27.6636 87.8567 27.5626 87.8717 27.3887C87.8866 27.2148 87.9983 27.127 88.1395 27.0653C88.3428 26.9845 88.5602 26.9448 88.7789 26.9484C89.3886 26.94 89.9935 27.0582 90.5551 27.2957C90.7136 27.3607 90.7949 27.3364 90.858 27.1756C90.9467 26.9426 91.0484 26.7147 91.1627 26.4932C91.2614 26.3062 91.2095 26.2188 91.0277 26.1398C90.3675 25.8549 89.6545 25.7128 88.9355 25.7229C88.2877 25.7163 87.6581 25.7962 87.093 26.1435C86.5279 26.4908 86.2956 27.0349 86.4077 27.6809C86.5012 28.2175 86.8251 28.5689 87.2874 28.82C87.7012 29.0428 88.1499 29.1615 88.5985 29.2802C88.7143 29.3108 88.8301 29.3414 88.9453 29.3738L88.9664 29.3797C89.1931 29.4431 89.4191 29.5064 89.6245 29.6206C89.8035 29.7197 89.9484 29.8506 89.9255 30.0782C89.9026 30.3059 89.7385 30.4054 89.5445 30.4751C89.2903 30.5653 89.0248 30.5685 88.7593 30.5597C88.1516 30.5358 87.5744 30.3774 87.0229 30.1324C86.8326 30.0478 86.7424 30.088 86.6732 30.2755C86.616 30.4261 86.5474 30.5723 86.4786 30.7186C86.4446 30.7912 86.4105 30.8637 86.3778 30.9369C86.2497 31.2234 86.2497 31.2253 86.5274 31.3533C87.2832 31.702 88.0801 31.8525 88.9112 31.8474C89.4782 31.8441 90.033 31.7693 90.5401 31.5015C91.1978 31.1533 91.5072 30.5185 91.3904 29.7842ZM34.3932 25.8185C34.5247 25.8203 34.6563 25.8221 34.7874 25.8148C34.987 25.8036 35.0641 25.8714 35.0557 26.0784C35.0473 26.4536 35.0488 26.829 35.0503 27.2045V27.2046V27.2046C35.0509 27.3511 35.0515 27.4977 35.0515 27.6443C35.0515 27.8027 35.0526 27.9612 35.0537 28.1196C35.0559 28.4365 35.0581 28.7533 35.0515 29.0699C35.0137 30.8601 33.7357 32.0108 31.9498 31.8706C30.3905 31.7491 29.3837 30.6969 29.3556 29.1316C29.3448 28.5286 29.3468 27.9255 29.3488 27.3225V27.3224V27.3224C29.3501 26.9049 29.3515 26.4874 29.3486 26.07C29.3472 25.8784 29.4126 25.805 29.6047 25.812C29.8922 25.8232 30.1815 25.826 30.469 25.812C30.6891 25.8012 30.7494 25.8933 30.7494 26.0999C30.7444 26.9595 30.7466 27.8195 30.7488 28.6791V28.6795V28.6799L30.7494 28.9511C30.7459 29.0919 30.7553 29.2327 30.7775 29.3718C30.9275 30.1692 31.5169 30.6366 32.2989 30.5899C33.0641 30.5441 33.6273 29.972 33.6497 29.1549C33.6676 28.5077 33.665 27.8602 33.6625 27.2127C33.6613 26.9097 33.6601 26.6067 33.661 26.3037C33.661 26.2829 33.661 26.263 33.661 26.244C33.661 26.2288 33.6609 26.2141 33.6609 26.1999C33.6603 26.002 33.6601 25.9059 33.7079 25.8596C33.7531 25.8158 33.841 25.8163 34.0118 25.8171H34.012C34.0548 25.8173 34.1027 25.8176 34.1564 25.8171C34.2353 25.8163 34.3142 25.8174 34.3932 25.8185ZM19.6703 25.8281C19.1094 25.8354 18.5486 25.8342 17.9877 25.8331C17.754 25.8327 17.5202 25.8322 17.2865 25.8323C17.0193 25.8323 16.7521 25.8327 16.4849 25.833C15.9505 25.8338 15.4161 25.8345 14.8817 25.8323C14.6947 25.8323 14.6101 25.8907 14.6185 26.0875C14.6292 26.3516 14.6278 26.6171 14.6185 26.8821C14.6124 27.0626 14.6835 27.1331 14.8644 27.1308C15.1546 27.1264 15.4451 27.1279 15.7359 27.1293H15.7361L15.737 27.1293C15.8823 27.1301 16.0276 27.1308 16.1731 27.1308C16.5915 27.1308 16.5938 27.1308 16.5938 27.5482C16.5938 27.8825 16.5941 28.2168 16.5943 28.5511V28.5519C16.5951 29.5172 16.596 30.4825 16.5901 31.4478C16.5901 31.6624 16.6597 31.7395 16.8705 31.7283C17.0295 31.7205 17.1893 31.7223 17.3488 31.7242C17.4463 31.7254 17.5437 31.7265 17.6408 31.7255C17.9862 31.7255 17.9872 31.7255 17.9876 31.3716C17.9876 31.0234 17.9879 30.6752 17.9882 30.327C17.989 29.3599 17.9898 28.3928 17.9843 27.4257C17.9843 27.2065 18.0489 27.121 18.276 27.1271C18.5633 27.1349 18.8508 27.1334 19.1385 27.1319H19.1386C19.3339 27.1309 19.5294 27.1298 19.725 27.1317C19.8905 27.1317 19.9671 27.0756 19.961 26.9004C19.9522 26.6438 19.947 26.3862 19.961 26.1301C19.9755 25.9024 19.8956 25.8248 19.6703 25.8281ZM61.3705 28.0633C61.3708 28.3053 61.3712 28.5473 61.3712 28.7893C61.3712 29.0186 61.3708 29.2479 61.3704 29.4771C61.3693 30.1266 61.3682 30.776 61.3758 31.4283C61.3782 31.6485 61.3146 31.7387 61.086 31.7256C60.8139 31.7105 60.5411 31.7105 60.269 31.7256C60.0446 31.7377 59.9731 31.6522 59.9731 31.4302C59.9786 30.4917 59.9778 29.553 59.977 28.6142C59.9767 28.2765 59.9764 27.9388 59.9764 27.6011C59.9764 27.4534 59.9769 27.3059 59.9775 27.1584C59.9787 26.807 59.98 26.4561 59.9741 26.1054C59.9708 25.9063 60.0409 25.8217 60.2452 25.8291C60.5326 25.8399 60.8215 25.8413 61.1089 25.8291C61.3155 25.8203 61.3744 25.9044 61.3744 26.104C61.3686 26.7571 61.3696 27.4102 61.3705 28.0633Z" fill="#919EAB"/>
</g>
<defs>
<clipPath id="clip0_4595_7992">
<rect width="91.4286" height="32" fill="white" transform="translate(0.285706 0.000976562)"/>
</clipPath>
</defs>
</svg>

<svg xmlns="http://www.w3.org/2000/svg" width="92" height="32" fill="none"><g clip-path="url(#a)"><path fill="#919EAB" fill-rule="evenodd" d="M21.587 8.437V.491c0-.367 0-.368.357-.368.812 0 1.623-.002 2.434-.003 1.9-.004 3.8-.008 5.7.01 1.828.017 3.458.59 4.77 1.92 1.825 1.855 2.196 4.908.864 7.035-.57.91-1.371 1.561-2.329 2.031l-.003.002c-.26.128-.262.128-.088.355 1.273 1.663 2.548 3.326 3.826 4.989l.029.037.098.13c.066.09.027.125-.07.126H33.04c-.145 0-.212-.09-.28-.182l-.027-.036a8961.337 8961.337 0 0 1-4.172-5.429l-.114-.147c-.472-.61-.943-1.218-1.408-1.835-.022-.028-.05-.057-.08-.085-.078-.079-.16-.16-.113-.254.04-.082.154-.069.262-.056.04.004.078.009.112.009.4-.004.8-.005 1.2-.007h.001c.495-.002.99-.004 1.486-.01a3.234 3.234 0 0 0 1.184-.243c.999-.404 1.52-1.226 1.496-2.353-.022-.996-.634-1.827-1.597-2.174a4.146 4.146 0 0 0-1.402-.226 498.427 498.427 0 0 0-3.561 0h-.179c-.338 0-.346.009-.346.36v12.2c0 .485-.004.485-.305.476a5.12 5.12 0 0 0-.18-.003c-.69.003-1.38.002-2.07.001h-1.038c-.32 0-.321 0-.321-.328V8.437ZM.814 8.442V.522c0-.397 0-.398.4-.398L3.293.123C5.208.12 7.125.12 9.042.127c1.254.006 2.467.237 3.58.845 1.925 1.05 2.905 2.717 3.075 4.87.11 1.403-.152 2.735-.926 3.933-1.014 1.568-2.515 2.365-4.312 2.678a9.504 9.504 0 0 1-1.558.125.435.435 0 0 1-.378-.188c-.467-.603-.936-1.206-1.405-1.808L6.086 9.254c-.01-.013-.023-.026-.037-.04-.044-.044-.092-.092-.052-.155.034-.057.102-.052.166-.047l.052.002h.697c.663.001 1.327.002 1.99-.003.964-.006 1.795-.323 2.381-1.118 1.136-1.54.273-3.705-1.636-4.13a3.755 3.755 0 0 0-.81-.09c-1.263-.002-2.525-.002-3.787 0-.313 0-.322.01-.322.337V16.384c0 .199 0 .292-.046.335-.041.038-.118.037-.262.036l-.122-.001c-1.035.002-2.071.002-3.107 0-.374 0-.377 0-.377-.371V8.442Zm58.135-.73c-.006-.078-.01-.159.044-.24a.654.654 0 0 1 .191.196c.02.026.039.053.06.078 2.292 2.925 4.58 5.852 6.864 8.781.134.17.274.234.49.234 1.043-.007 2.087-.007 3.13-.006h.843c.024 0 .05.003.077.006.076.009.156.018.187-.039.04-.074-.02-.137-.076-.195a.69.69 0 0 1-.05-.056C66.581 11.095 62.458 5.718 58.338.34a.502.502 0 0 0-.453-.219c-.61.007-1.22.006-1.829.005h-.648c-.35 0-.35 0-.35.35V16.344c0 .206 0 .31.052.361.052.053.157.053.369.053h3.085c.386 0 .386 0 .386-.38-.002-2.866-.002-5.733 0-8.6l-.002-.065ZM84.168.124h7.174c.37 0 .37 0 .37.377v2.898c0 .356 0 .357-.367.357h-4.86c-.359 0-.362.003-.362.368V16.32c0 .437 0 .437-.428.437h-3.131c-.348 0-.349 0-.349-.344V4.193l.001-.12v-.001c.002-.151.003-.23-.036-.272-.043-.045-.134-.045-.324-.044h-4.899c-.337 0-.343-.006-.343-.339V.45c0-.316.009-.325.333-.327l7.222.001ZM47.583 16.357V8.462c-.004-2.679-.001-5.357.008-8.035 0-.238-.073-.307-.307-.307-1.107.008-2.213.008-3.318 0-.219-.001-.303.064-.303.293.004 5.35.003 10.698-.003 16.047 0 .243.086.3.314.3.782-.007 1.564-.006 2.346-.004h.854c.41 0 .41 0 .41-.4Zm22.925-4.99-.141-.178c-.131-.164-.262-.328-.391-.492a6122.79 6122.79 0 0 0-3.118-3.966.804.804 0 0 1-.187-.532c.004-1.374.004-2.748.003-4.122V.476c0-.349.005-.352.352-.352h3.225c.31 0 .324.012.324.311v10.698c0 .048-.004.095-.008.143l-.002.031-.002.033-.055.027ZM5.013 26.139c-.67-.289-1.366-.422-2.157-.416-.488-.013-1.028.055-1.532.287-.538.246-.908.629-.95 1.251-.045.652.22 1.148.774 1.49.289.17.599.301.923.389l.547.154c.215.06.43.12.644.183.174.044.337.123.479.233.247.206.229.511-.043.683a1.15 1.15 0 0 1-.533.155c-.766.066-1.484-.125-2.178-.423-.166-.072-.25-.047-.317.124a8.445 8.445 0 0 1-.338.744c-.09.173-.046.258.124.339a5.513 5.513 0 0 0 2.097.504c.69.033 1.373-.014 1.998-.356a1.583 1.583 0 0 0 .14-2.729 3.191 3.191 0 0 0-.576-.308 9.228 9.228 0 0 0-1.018-.335c-.15-.043-.3-.086-.449-.132a2.44 2.44 0 0 1-.56-.227c-.141-.084-.256-.194-.235-.37.022-.177.146-.268.297-.328.198-.071.408-.107.619-.104a4.36 4.36 0 0 1 1.756.342c.184.076.265.034.332-.14a5.79 5.79 0 0 1 .296-.66c.1-.19.04-.273-.14-.35Zm42.87-.263c-.57-.07-1.143-.06-1.716-.049-.339.006-.678.012-1.016.002-.237-.008-.313.076-.31.309.006.64.005 1.28.004 1.92v3.385c0 .165.021.284.237.28.321-.003.642-.002.963 0 .536.002 1.072.004 1.608-.018.831-.034 1.579-.325 2.124-.98.768-.92.892-1.976.485-3.075-.404-1.085-1.26-1.638-2.38-1.774Zm1.185 2.95c-.034.875-.556 1.47-1.397 1.575-.287.036-.576.03-.865.025-.124-.003-.248-.005-.371-.004-.175 0-.2-.108-.2-.248V28.304c.002-.311.003-.623 0-.934-.002-.18.066-.254.247-.247.148.006.297.004.445.002.287-.005.574-.01.86.048.81.166 1.314.814 1.28 1.653Zm21.8-.061c-.002-1.75 1.394-3.132 3.16-3.127 1.765.005 3.142 1.371 3.142 3.117 0 1.76-1.38 3.126-3.155 3.126-1.756-.001-3.147-1.377-3.147-3.116Zm1.389-.01c-.002 1.007.794 1.829 1.767 1.829.967-.002 1.75-.808 1.76-1.811.011-1.011-.772-1.83-1.753-1.834-.982-.003-1.772.808-1.774 1.815Zm19.133 1.03c-.1-.632-.53-.982-1.059-1.245-.393-.194-.813-.314-1.233-.433l-.314-.091-.024-.007c-.23-.069-.462-.138-.67-.264-.13-.081-.233-.182-.218-.356.015-.174.126-.262.267-.324.204-.08.421-.12.64-.117.61-.008 1.215.11 1.776.348.159.065.24.04.303-.12.089-.233.19-.461.305-.683.098-.187.047-.274-.135-.353a5.1 5.1 0 0 0-2.093-.417c-.647-.007-1.277.073-1.842.42-.565.348-.797.892-.685 1.538.093.537.417.888.88 1.139.413.223.862.341 1.31.46.116.03.232.061.347.094l.021.006c.227.063.453.126.659.24.178.1.323.23.3.458-.022.228-.186.327-.38.397-.255.09-.52.093-.786.085a4.715 4.715 0 0 1-1.736-.428c-.19-.084-.28-.044-.35.143-.057.151-.126.297-.194.444-.034.072-.069.145-.101.218-.128.286-.128.288.15.416a5.53 5.53 0 0 0 2.383.494c.567-.003 1.122-.078 1.63-.346.657-.348.966-.983.85-1.717Zm-56.997-3.966c.132.001.263.003.394-.004.2-.011.277.056.269.263-.009.376-.007.751-.006 1.127l.002.44c0 .158 0 .316.002.475.002.316.004.633-.003.95-.037 1.79-1.315 2.94-3.101 2.8-1.56-.12-2.566-1.173-2.594-2.738a85.234 85.234 0 0 1-.007-1.81c.001-.417.003-.835 0-1.252-.002-.192.064-.265.256-.258.287.011.576.014.864 0 .22-.01.28.081.28.288-.005.86-.002 1.72 0 2.58v.271c-.003.14.006.282.029.42.15.798.739 1.266 1.52 1.219.766-.046 1.33-.618 1.352-1.435.018-.647.015-1.295.013-1.942-.002-.303-.003-.606-.002-.91V26.2c0-.198 0-.294.047-.34.045-.044.133-.044.304-.043h.144c.08 0 .158 0 .237.002Zm-14.723.01c-.56.006-1.121.005-1.682.004H16.485c-.534 0-1.069.002-1.603 0-.187 0-.272.058-.264.255.011.264.01.53 0 .794-.006.18.066.251.246.249.29-.005.581-.003.872-.002h.001l.436.002c.419 0 .42 0 .42.417l.001 1.003c.001.966.002 1.932-.004 2.897 0 .214.07.291.28.28a7.86 7.86 0 0 1 .479-.004c.097.001.195.003.292.002.345 0 .346 0 .347-.354v-1.045c.001-.967.002-1.934-.004-2.901 0-.22.065-.305.292-.299.287.008.575.006.863.005.195-.001.39-.002.586 0 .165 0 .242-.056.236-.232a8.68 8.68 0 0 1 0-.77c.015-.228-.065-.305-.29-.302Zm41.7 2.234.001.726v.688c-.002.65-.003 1.299.005 1.951.002.22-.061.31-.29.298a7.373 7.373 0 0 0-.817 0c-.224.012-.296-.074-.296-.296.006-.938.005-1.877.004-2.816v-1.456c.002-.351.003-.702-.003-1.053-.003-.199.067-.283.271-.276.288.01.577.012.864 0 .206-.009.265.075.265.275-.005.653-.004 1.306-.004 1.96Z" clip-rule="evenodd"/></g><defs><clipPath id="a"><path fill="#fff" d="M.286.001h91.429v32H.285z"/></clipPath></defs></svg>
